X: 3
T:Outer Magnolia Reel
% Nottingham Music Database
S:Mike Richardson 27.10.90, via PR
M:4/4
L:1/4
K:A
"A"\
P:3
c/2B/2A/2G/2 A/2B/2c/2d/2|"A"e/2c/2"D"f/2c/2 "A"e/2ce/2|"D"
P:3
f/2e/2d/2c/2 d/2e/2f/2g/2|"A"a/2e/2c/2A/2 "E"B/2A/2G/2B/2|\
"A"c/2B/2A/2G/2 A/2B/2c/2d/2|
"A"e/2c/2"D"f/2c/2 "A"e/2ce/2|"D"f/2e/2d/2f/2 "A"e/2A/2c/2A/2|\
 [1"E"B/2A/2G/2B/2 "A"A3/2B/2:|
 [2"E"B/2A/2G/2B/2 "A"A/2B/2c/2d/2|:"A"e"D"f "A"e3/2e/2|"D"f"E"g "A"ag/2f/2|\
"A"e/2f/2g/2a/2 e/2d/2c/2e/2|"D"
P:3
f/2e/2d/2\
P:3
c/2 "E"Bc/2d/2|"A"e"D"f "A"e3/2e/2|"D"f"E"g "A"ag/2f/2|"A"e/2f/2g/2a/2 e/2d/2
P:3
c/2e/2| [1"E"d/2B/2G/2B/2 "A"A/2B/2c/2d/2:| [2"E"d/2B/2G/2B/2 "A"A3/2B/2||<end>
<start>
